Flat-Remix-Dark/apps/scalable/skrooge.svg

<svg xmlns="http://www.w3.org/2000/svg" xmlns:xlink="http://www.w3.org/1999/xlink" width="384pt" height="384pt" version="1.1" viewBox="0 0 384 384">
 <defs>
  <filter id="alpha" width="100%" height="100%" x="0%" y="0%" filterUnits="objectBoundingBox">
   <feColorMatrix in="SourceGraphic" type="matrix" values="0 0 0 0 1 0 0 0 0 1 0 0 0 0 1 0 0 0 1 0"/>
  </filter>
  <mask id="mask0">
   <g filter="url(#alpha)">
    <rect width="384" height="384" x="0" y="0" style="fill:rgb(0%,0%,0%);fill-opacity:0.2"/>
   </g>
  </mask>
  <clipPath id="clip1">
   <rect width="384" height="384" x="0" y="0"/>
  </clipPath>
  <g id="surface5" clip-path="url(#clip1)">
   <path style="fill:rgb(0%,0%,0%)" d="M 36.300781 192 C 36.226562 194.003906 35.996094 195.972656 35.996094 198 C 35.996094 284.425781 105.574219 354 191.996094 354 C 278.421875 354 347.996094 284.425781 347.996094 198 C 347.996094 195.972656 347.769531 194.007812 347.691406 192 C 344.523438 275.59375 276.390625 342 191.992188 342 C 107.597656 342 39.460938 275.59375 36.292969 192 Z M 36.300781 192"/>
  </g>
  <mask id="mask1">
   <g filter="url(#alpha)">
    <rect width="384" height="384" x="0" y="0" style="fill:rgb(0%,0%,0%);fill-opacity:0.2"/>
   </g>
  </mask>
  <clipPath id="clip2">
   <rect width="384" height="384" x="0" y="0"/>
  </clipPath>
  <g id="surface8" clip-path="url(#clip2)">
   <path style="fill:rgb(100%,100%,100%)" d="M 192 36 C 105.574219 36 36 105.574219 36 192 C 36 192.664062 36.070312 193.3125 36.105469 193.96875 C 38.234375 109.429688 106.929688 42 192 42 C 277.085938 42 345.800781 109.453125 347.90625 194.015625 C 347.941406 193.34375 348 192.679688 348 192 C 348 105.574219 278.425781 36 192 36 Z M 192 36"/>
  </g>
 </defs>
 <g>
  <use mask="url(#mask0)" xlink:href="#surface5"/>
  <path style="fill:rgb(100%,78.823529%,27.843137%)" d="M 342 192 C 342 109.15625 274.84375 42 192 42 C 109.15625 42 42 109.15625 42 192 C 42 274.84375 109.15625 342 192 342 C 274.84375 342 342 274.84375 342 192 Z M 342 192"/>
  <path style="fill:rgb(70.196078%,55.294118%,19.607843%)" d="M 191.996094 96 C 152.898438 96.019531 117.714844 119.753906 103.050781 156 L 83.996094 156 L 71.996094 180 L 96.863281 180 C 96.324219 183.976562 96.035156 187.984375 95.996094 192 L 83.996094 216 L 99.183594 216 C 110.117188 258.335938 148.273438 287.9375 191.996094 288 C 221.144531 287.996094 248.710938 274.753906 266.925781 252 L 231.730469 252 C 219.949219 259.8125 206.132812 263.988281 191.996094 264 C 161.515625 263.964844 134.359375 244.738281 124.199219 216 L 203.996094 216 L 215.996094 192 L 119.996094 192 C 120.023438 187.976562 120.382812 183.960938 121.078125 180 L 215.996094 180 L 227.996094 156 L 129.730469 156 C 142.574219 133.75 166.304688 120.03125 191.996094 120 C 206.125 120.019531 219.933594 124.191406 231.707031 132 L 266.828125 132 C 248.632812 109.273438 221.109375 96.03125 191.996094 96 Z M 191.996094 96"/>
  <path style="fill:rgb(70.196078%,55.294118%,19.607843%)" d="M 191.996094 36 C 105.574219 36 35.996094 105.574219 35.996094 192 C 35.996094 278.425781 105.574219 348 191.996094 348 C 278.421875 348 347.996094 278.425781 347.996094 192 C 347.996094 105.574219 278.421875 36 191.996094 36 Z M 191.996094 60 C 265.546875 60 323.996094 118.457031 323.996094 192 C 323.996094 265.546875 265.546875 324 191.996094 324 C 118.453125 324 59.996094 265.546875 59.996094 192 C 59.996094 118.457031 118.453125 60 191.996094 60 Z M 191.996094 60"/>
  <use mask="url(#mask1)" xlink:href="#surface8"/>
 </g>
</svg>

<svg xmlns="http://www.w3.org/2000/svg" xmlns:xlink="http://www.w3.org/1999/xlink" width="384pt" height="384pt" version="1.1" viewBox="0 0 384 384">
 <defs>
  <filter id="alpha" width="100%" height="100%" x="0%" y="0%" filterUnits="objectBoundingBox">
   <feColorMatrix in="SourceGraphic" type="matrix" values="0 0 0 0 1 0 0 0 0 1 0 0 0 0 1 0 0 0 1 0"/>
  </filter>
  <mask id="mask0">
   <g filter="url(#alpha)">
    <rect width="384" height="384" x="0" y="0" style="fill:rgb(0%,0%,0%);fill-opacity:0.2"/>
   </g>
  </mask>
  <clipPath id="clip1">
   <rect width="384" height="384" x="0" y="0"/>
  </clipPath>
  <g id="surface5" clip-path="url(#clip1)">
   <path style="fill:rgb(0%,0%,0%)" d="M 36.300781 192 C 36.226562 194.003906 35.996094 195.972656 35.996094 198 C 35.996094 284.425781 105.574219 354 191.996094 354 C 278.421875 354 347.996094 284.425781 347.996094 198 C 347.996094 195.972656 347.769531 194.007812 347.691406 192 C 344.523438 275.59375 276.390625 342 191.992188 342 C 107.597656 342 39.460938 275.59375 36.292969 192 Z M 36.300781 192"/>
  </g>
  <mask id="mask1">
   <g filter="url(#alpha)">
    <rect width="384" height="384" x="0" y="0" style="fill:rgb(0%,0%,0%);fill-opacity:0.2"/>
   </g>
  </mask>
  <clipPath id="clip2">
   <rect width="384" height="384" x="0" y="0"/>
  </clipPath>
  <g id="surface8" clip-path="url(#clip2)">
   <path style="fill:rgb(100%,100%,100%)" d="M 192 36 C 105.574219 36 36 105.574219 36 192 C 36 192.664062 36.070312 193.3125 36.105469 193.96875 C 38.234375 109.429688 106.929688 42 192 42 C 277.085938 42 345.800781 109.453125 347.90625 194.015625 C 347.941406 193.34375 348 192.679688 348 192 C 348 105.574219 278.425781 36 192 36 Z M 192 36"/>
  </g>
 </defs>
 <use width="100%" height="100%" x="0" y="0" mask="url(#mask0)" xlink:href="#surface5"/>
 <path d="M 342,192 C 342,109.15625 274.84375,42 192,42 109.15625,42 42,109.15625 42,192 c 0,82.84375 67.15625,150 150,150 82.84375,0 150,-67.15625 150,-150 z m 0,0" style="fill:#ffc745"/>
 <path style="opacity:0.3" d="m 191.99609,103.50001 c -39.09765,0.0195 -74.28124,23.75391 -88.9453,59.99999 H 83.996097 l -12,24 h 24.86719 c -0.53906,3.97656 -0.82813,7.98436 -0.86719,12 l -12,24 h 15.1875 c 10.933603,42.33593 49.089853,71.9375 92.812493,72 29.14844,-0.004 56.71485,-13.24609 74.92969,-36 h -35.19531 c -11.78125,7.8125 -25.59766,11.98829 -39.73438,12 -30.48046,-0.0352 -57.63671,-19.26173 -67.79686,-48 h 79.79686 l 12,-24 H 119.9961 c 0.0273,-4.02344 0.38672,-8.03906 1.08204,-12 h 94.91795 l 12,-24 h -98.26561 c 12.84375,-22.25 36.57421,-35.96875 62.26561,-36 14.12892,0.0195 27.9375,4.19141 39.71094,12 h 35.12109 c -18.19531,-22.72656 -45.71875,-35.96874 -74.83203,-35.99999 z m 0,0"/>
 <path d="m 191.99609,96 c -39.09765,0.01953 -74.28125,23.75391 -88.94531,60 H 83.996094 l -12,24 h 24.867187 c -0.539062,3.97656 -0.828125,7.98437 -0.867187,12 l -12,24 h 15.1875 c 10.933596,42.33594 49.089846,71.9375 92.812496,72 29.14844,-0.004 56.71485,-13.24609 74.92969,-36 h -35.19531 c -11.78125,7.8125 -25.59766,11.98828 -39.73438,12 -30.48047,-0.0352 -57.63672,-19.26172 -67.79687,-48 h 79.79687 l 12,-24 h -96 c 0.0273,-4.02344 0.38672,-8.03906 1.08204,-12 h 94.91796 l 12,-24 h -98.26562 c 12.84375,-22.25 36.57422,-35.96875 62.26562,-36 14.12891,0.0195 27.9375,4.19141 39.71094,12 h 35.12109 C 248.63281,109.27344 221.10937,96.03125 191.99609,96 Z m 0,0" style="fill:#ffffff"/>
 <path d="m 191.99609,36 c -86.42187,0 -155.999996,69.57422 -155.999996,156 0,86.42578 69.578126,156 155.999996,156 86.42578,0 156,-69.57422 156,-156 0,-86.42578 -69.57422,-156 -156,-156 z m 0,24 c 73.55078,0 132,58.45703 132,132 0,73.54687 -58.44922,132 -132,132 -73.54296,0 -131.999996,-58.45313 -131.999996,-132 0,-73.54297 58.457036,-132 131.999996,-132 z m 0,0" style="fill:#ffffff"/>
 <use width="100%" height="100%" x="0" y="0" mask="url(#mask1)" xlink:href="#surface8"/>
</svg>
